app/images/icons/speed.svg

<svg width="67" height="68" viewBox="0 0 67 68" fill="none" xmlns="http://www.w3.org/2000/svg">
<path d="M2 33.625C2 16.159 16.2412 2 33.8085 2C37.0463 2 40.1712 2.48098 43.1147 3.375" stroke="white" stroke-width="4" stroke-linecap="round" stroke-linejoin="round"/>
<path fill-rule="evenodd" clip-rule="evenodd" d="M26.9628 40.4307C30.7436 44.1895 36.873 44.1895 40.6537 40.4307C44.4343 36.6719 60.0847 10.2499 58.7018 8.87494C57.3188 7.49994 30.7436 23.0602 26.9628 26.819C23.1823 30.5778 23.1823 36.6719 26.9628 40.4307ZM33.808 36.3751C35.3356 36.3751 36.5742 35.1439 36.5742 33.6251C36.5742 32.1063 35.3356 30.8751 33.808 30.8751C32.2805 30.8751 31.0422 32.1063 31.0422 33.6251C31.0422 35.1439 32.2805 36.3751 33.808 36.3751Z" fill="white"/>
<ellipse cx="6.14901" cy="50.125" rx="2.76596" ry="2.75" fill="white"/>
<ellipse cx="17.2127" cy="61.125" rx="2.76596" ry="2.75" fill="white"/>
<ellipse cx="33.8084" cy="65.25" rx="2.76596" ry="2.75" fill="white"/>
<ellipse cx="50.4041" cy="61.125" rx="2.76596" ry="2.75" fill="white"/>
<ellipse cx="60.085" cy="50.125" rx="2.76596" ry="2.75" fill="white"/>
<ellipse cx="64.234" cy="33.625" rx="2.76596" ry="2.75" fill="white"/>
</svg>

<svg width="67" height="68" fill="none" xmlns="http://www.w3.org/2000/svg">
  <path d="M2 33.63A31.72 31.72 0 0 1 33.8 2c3.25 0 6.37.48 9.31 1.38" stroke="#fff" stroke-width="4" stroke-linecap="round" stroke-linejoin="round"/>
  <path fill-rule="evenodd" clip-rule="evenodd" d="M26.96 40.43a9.72 9.72 0 0 0 13.7 0c3.77-3.76 19.42-30.18 18.04-31.56-1.38-1.37-27.96 14.19-31.74 17.95a9.59 9.59 0 0 0 0 13.61Zm6.85-4.05a2.76 2.76 0 0 0 2.76-2.75 2.76 2.76 0 0 0-2.76-2.75 2.76 2.76 0 0 0-2.77 2.75 2.76 2.76 0 0 0 2.77 2.75Z" fill="#fff"/>
  <ellipse cx="6.15" cy="50.13" rx="2.77" ry="2.75" fill="#fff"/>
  <ellipse cx="17.21" cy="61.13" rx="2.77" ry="2.75" fill="#fff"/>
  <ellipse cx="33.81" cy="65.25" rx="2.77" ry="2.75" fill="#fff"/>
  <ellipse cx="50.4" cy="61.13" rx="2.77" ry="2.75" fill="#fff"/>
  <ellipse cx="60.09" cy="50.13" rx="2.77" ry="2.75" fill="#fff"/>
  <ellipse cx="64.23" cy="33.63" rx="2.77" ry="2.75" fill="#fff"/>
</svg>
